icon/fa/mars-and-venus-burst.svg

<svg xmlns="http://www.w3.org/2000/svg" viewBox="0 0 640 512"><!--! Font Awesome Free 6.1.2 by @fontawesome - https://fontawesome.com License - https://fontawesome.com/license/free (Icons: CC BY 4.0, Fonts: SIL OFL 1.1, Code: MIT License) Copyright 2022 Fonticons, Inc.--><path d="M607.1 0c18.6 0 32 14.33 32 32v88c0 17.7-13.4 32-32 32-16.8 0-32-14.3-32-32v-10.7l-35.5 36.4c13 23.1 19.5 49.9 19.5 78.3 0 77.4-54.1 141.1-128 156.8V400h16c18.6 0 32 14.3 32 32s-13.4 32-32 32h-16v16c0 17.7-13.4 32-32 32-16.8 0-32-14.3-32-32v-16h-16c-16.8 0-32-14.3-32-32s15.2-32 32-32h16v-19.2c-73-15.7-128-79.4-128-156.8 0-88.4 72.5-160 160-160 37.6 0 71.5 12.37 98.5 33.18L530.7 64h-19.6c-16.8 0-32-14.33-32-32s15.2-32 32-32h96zm-208 128c-53 0-96 42.1-96 96 0 53 43 96 96 96 53.9 0 96-43 96-96 0-53.9-42.1-96-96-96zM220.3 92.05l60.1-18.24C236.3 108.1 207.1 163.2 207.1 224c0 45.2 16.5 86.8 42.7 119.6-5.3 1.4-11.1.1-15.2-3.7l-59.5-53.8-57.7 53.8c-4.8 4.5-11.9 5.5-17.77 2.7-5.9-2.9-9.48-9-9.01-15.6l5.59-79.4-78.66-12.2c-6.47-1-11.682-5.8-13.14-12.2-1.459-6.4 1.128-13.1 6.53-16.8l65.56-45.1-39.49-69.12a16.008 16.008 0 0 1 1.38-17.91 16.007 16.007 0 0 1 17.16-5.34l76.15 23.12 29.4-73.96c2.5-6.99 8.3-10.99 14-10.99 7.5 0 13.3 4 15.8 10.99l29.4 73.96z"/></svg>

<svg xmlns="http://www.w3.org/2000/svg" viewBox="0 0 640 512" height="1em" width="1em">
<!--! Font Awesome Free 6.1.2 by @fontawesome - https://fontawesome.com License - https://fontawesome.com/license/free (Icons: CC BY 4.0, Fonts: SIL OFL 1.1, Code: MIT License) Copyright 2022 Fonticons, Inc.-->
  <path d="M607.1 0C625.7 0 639.1 14.33 639.1 32V120C639.1 137.7 625.7 152 607.1 152C590.3 152 575.1 137.7 575.1 120V109.3L539.6 145.7C552.6 168.8 559.1 195.6 559.1 224C559.1 301.4 505 365.1 431.1 380.8V400H447.1C465.7 400 479.1 414.3 479.1 432C479.1 449.7 465.7 464 447.1 464H431.1V480C431.1 497.7 417.7 512 399.1 512C382.3 512 367.1 497.7 367.1 480V464H351.1C334.3 464 319.1 449.7 319.1 432C319.1 414.3 334.3 400 351.1 400H367.1V380.8C294.1 365.1 239.1 301.4 239.1 224C239.1 135.6 311.6 64 399.1 64C436.7 64 470.6 76.37 497.6 97.18L530.7 64H511.1C494.3 64 479.1 49.67 479.1 32C479.1 14.33 494.3 0 511.1 0L607.1 0zM399.1 128C346.1 128 303.1 170.1 303.1 224C303.1 277 346.1 320 399.1 320C453 320 495.1 277 495.1 224C495.1 170.1 453 128 399.1 128zM220.3 92.05L280.4 73.81C236.3 108.1 207.1 163.2 207.1 224C207.1 269.2 223.6 310.8 249.8 343.6C244.5 345 238.7 343.7 234.6 339.9L175.1 286.1L117.4 339.9C112.6 344.4 105.5 345.4 99.63 342.6C93.73 339.7 90.15 333.6 90.62 327L96.21 247.6L17.55 235.4C11.08 234.4 5.868 229.6 4.41 223.2C2.951 216.8 5.538 210.1 10.94 206.4L76.5 161.3L37.01 92.18C33.76 86.49 34.31 79.39 38.39 74.27C42.48 69.14 49.28 67.03 55.55 68.93L131.7 92.05L161.1 18.09C163.6 11.1 169.4 7.1 175.1 7.1C182.6 7.1 188.4 11.1 190.9 18.09L220.3 92.05z"/>
</svg>
